admin/src/theme/img/safetyequipment/big/S.svg

<?xml version="1.0" encoding="UTF-8"?>
<svg width="32px" height="32px" viewBox="0 0 32 32" version="1.1" xmlns="http://www.w3.org/2000/svg" xmlns:xlink="http://www.w3.org/1999/xlink">
    <title>1254A5C5-1DA1-4B26-92EE-0FA69FF5F021</title>
    <g id="Squat-laskuri" stroke="none" stroke-width="1" fill="none" fill-rule="evenodd">
        <g id="colors_and_typography" transform="translate(-1006.000000, -1050.000000)">
            <g id="turvalaite_ikonit" transform="translate(718.000000, 906.000000)">
                <g id="Asset-45" transform="translate(288.000000, 144.000000)">
                    <rect id="Rectangle" x="0" y="0" width="32" height="32"></rect>
                    <path d="M16,4.21333333 C17.8266667,4.21333333 19.4,4.86666667 20.7066667,6.17333333 C22.0133333,7.48 22.6666667,9.05333333 22.6666667,10.88 C22.6666667,12.7066667 22.0133333,14.28 20.7066667,15.5866667 C19.4,16.8933333 17.8266667,17.5466667 16,17.5466667 C14.1733333,17.5466667 12.6,16.8933333 11.2933333,15.5866667 C9.98666667,14.28 9.33333333,12.7066667 9.33333333,10.88 C9.33333333,9.05333333 9.98666667,7.48 11.2933333,6.17333333 C12.6,4.86666667 14.1733333,4.21333333 16,4.21333333 L16,4.21333333 Z M16,5.16 C14.4,5.16 13.0533333,5.72 11.9466667,6.84 C10.84,7.96 10.2933333,9.30666667 10.2933333,10.88 C10.2933333,12.4533333 10.84,13.8 11.9466667,14.92 C13.0533333,16.04 14.4,16.6 16,16.6 C17.6,16.6 18.92,16.04 20.04,14.92 C21.16,13.8 21.72,12.4533333 21.72,10.88 C21.72,9.30666667 21.16,7.96 20.04,6.84 C18.92,5.72 17.5733333,5.16 16,5.16 Z M11.24,30.8533333 L20.76,30.8533333 L20.76,32 L11.24,32 L11.24,30.8533333 Z M19.24,30.8533333 L12.7733333,30.8533333 L16.0133333,18.7866667 L19.2533333,30.8533333 L19.24,30.8533333 Z M16,6.12 C16.6133333,6.12 17.1466667,6.34666667 17.6,6.8 C18.0533333,7.25333333 18.28,7.78666667 18.28,8.4 C18.28,9.01333333 18.0533333,9.57333333 17.6,10.0133333 C17.1466667,10.4533333 16.6133333,10.68 16,10.68 C15.3866667,10.68 14.8266667,10.4533333 14.3866667,10.0133333 C13.9466667,9.57333333 13.72,9.02666667 13.72,8.4 C13.72,7.77333333 13.9466667,7.25333333 14.3866667,6.8 C14.8266667,6.34666667 15.3733333,6.12 16,6.12 Z M16,11.0666667 C15.36,11.0666667 14.8266667,11.2933333 14.3866667,11.76 C13.9466667,12.2133333 13.72,12.7466667 13.72,13.36 C13.72,13.9733333 13.9466667,14.5333333 14.3866667,14.9733333 C14.8266667,15.4133333 15.3733333,15.64 16,15.64 C16.6266667,15.64 17.1466667,15.4133333 17.6,14.9733333 C18.0533333,14.5333333 18.28,13.9866667 18.28,13.36 C18.28,12.7333333 18.0533333,12.2133333 17.6,11.76 C17.1466667,11.3066667 16.6133333,11.0666667 16,11.0666667 Z M15.4266667,10.6933333 L16.5733333,10.6933333 L16.5733333,11.0666667 L15.4266667,11.0666667 L15.4266667,10.6933333 Z M15.4266667,15.64 L16.5733333,15.64 L16.5733333,16.5866667 L15.4266667,16.5866667 L15.4266667,15.64 Z M15.4266667,17.5866667 L16.5733333,17.5866667 L16.5733333,18.8 L15.4266667,18.8 L15.4266667,17.5866667 Z M15.4266667,20.9333333 L15.4266667,18.8 L16,18.8 L15.4266667,20.9333333 Z M16.5733333,20.8933333 L16,18.8 L16.5733333,18.8 L16.5733333,20.8933333 Z" id="Shape" fill="#EC0E0E" fill-rule="nonzero"></path>
                </g>
            </g>
        </g>
    </g>
</svg>

<svg width="32" height="32" viewBox="0 0 32 32" xmlns="http://www.w3.org/2000/svg">
  <g fill="none" fill-rule="evenodd">
    <path d="M0 0h32v32H0z"/>
    <path d="M16 4.21333333c1.8266667 0 3.4.65333334 4.7066667 1.96 1.3066666 1.30666667 1.96 2.88 1.96 4.70666667 0 1.8266667-.6533334 3.4-1.96 4.7066667-1.3066667 1.3066666-2.88 1.96-4.7066667 1.96-1.8266667 0-3.4-.6533334-4.7066667-1.96C9.98666667 14.28 9.33333333 12.7066667 9.33333333 10.88c0-1.82666667.65333334-3.4 1.95999997-4.70666667 1.3066667-1.30666666 2.88-1.96 4.7066667-1.96ZM16 5.16c-1.6 0-2.9466667.56-4.0533333 1.68C10.84 7.96 10.2933333 9.30666667 10.2933333 10.88c0 1.5733333.5466667 2.92 1.6533334 4.04C13.0533333 16.04 14.4 16.6 16 16.6s2.92-.56 4.04-1.68c1.12-1.12 1.68-2.4666667 1.68-4.04 0-1.57333333-.56-2.92-1.68-4.04-1.12-1.12-2.4666667-1.68-4.04-1.68Zm-4.76 25.6933333h9.52V32h-9.52v-1.1466667Zm8 0h-6.4666667l3.24-12.0666666 3.24 12.0666666H19.24ZM16 6.12c.6133333 0 1.1466667.22666667 1.6.68.4533333.45333333.68.98666667.68 1.6 0 .61333333-.2266667 1.17333333-.68 1.6133333-.4533333.44-.9866667.6666667-1.6.6666667-.6133333 0-1.1733333-.2266667-1.6133333-.6666667C13.9466667 9.57333333 13.72 9.02666667 13.72 8.4c0-.62666667.2266667-1.14666667.6666667-1.6.44-.45333333.9866666-.68 1.6133333-.68Zm0 4.9466667c-.64 0-1.1733333.2266666-1.6133333.6933333-.44.4533333-.6666667.9866667-.6666667 1.6 0 .6133333.2266667 1.1733333.6666667 1.6133333.44.44.9866666.6666667 1.6133333.6666667.6266667 0 1.1466667-.2266667 1.6-.6666667.4533333-.44.68-.9866666.68-1.6133333 0-.6266667-.2266667-1.1466667-.68-1.6-.4533333-.4533333-.9866667-.6933333-1.6-.6933333Zm-.5733333-.3733334h1.1466666v.3733334h-1.1466666v-.3733334Zm0 4.9466667h1.1466666v.9466667h-1.1466666V15.64Zm0 1.9466667h1.1466666V18.8h-1.1466666v-1.2133333Zm0 3.3466666V18.8H16l-.5733333 2.1333333Zm1.1466666-.04L16 18.8h.5733333v2.0933333Z" fill="#EC0E0E" fill-rule="nonzero"/>
  </g>
</svg>
